X:1
T:Clifton (Turpin), CM
T:Clifton (Turpin), CM
T:Edmund Hart Turpin, 1875
T:Public Domain Courtesy of the Cyber Hymnal™
C:Edmund Hart Turpin, 1875
Z:Public Domain
Z:Courtesy of the Cyber Hymnal™
%%score ( 1 2 ) ( 3 4 )
L:1/8
Q:1/4=115
M:4/4
K:D
V:1 treble 
V:2 treble 
V:3 bass 
V:4 bass 
V:1
 [DA]2 | [DB]2 [DA]2 [DF]3 [CG] | [DA]2 D2 D2 [CE]2 | [DF]2 [DG]2 [DA]2 [DB]2 | [CE]6 [DA]2 | %5
 [DB]2 [DA]2 [DF]2 D2 | [DG]2 [DA]2 [DB]2 [DB]2 | [Ec]2 [Fd]2 [DF]2 [CE]2 x | D6 |] %9
V:2
 x2 | x8 | x2 D2 D2 x2 | x8 | x8 | x6 D2 | x8 | x9 | D6 |] %9
V:3
 [F,A,]2 | G,2 [F,A,]2 [D,A,]3 [E,A,] | [F,A,]2 [G,B,]2 [F,A,]2 [E,G,]2 | %3
 [D,A,]2 [B,,G,]2 [A,,F,]2 [G,,E,]2 | [A,,E,A,]6 [F,A,]2 | G,2 [F,A,]2 A,2 z x | %6
 [B,,G,]2 [A,,F,]2 [G,,G,]2 ([G,B,][F,A,]) | [E,G,]2 [D,A,]2 A,3 z G, | [D,F,]6 |] %9
V:4
 x2 | G,2 x6 | x8 | x8 | x8 | G,2 D,3 (F,2 =C,) | x8 | x4 A,,2 A,,2 x | x6 |] %9

